X:1
T:3 Lieder, Op.4
T:In Lust und Schmerzen
T:1. In Lust und Schmerzen
T:Peter Cornelius
T:Peter Cornelius
T:3 Lieder, Op.4
T:Creative Commons copyright waiver (CC0 1.0 Universal) 
T:Creative Commons copyright waiver (CC0 1.0 Universal) 
T:Creative Commons copyright waiver (CC0 1.0 Universal) 
C:Peter Cornelius
Z:Peter Cornelius
Z:Creative Commons copyright waiver (CC0 1.0 Universal)
Z:
L:1/8
M:2/4
K:Ab
V:1 treble nm="Voice" snm="Vo."
V:1
 z4 | z2 z E | F3 A | c2 A z/ A/ | f2 e2 | =d2 z3/2 d/ | g2 z3/2 =d/ | e2 c2 | z c (3cbc | e4- | %10
w: |In|Lust und|Schmer- zen, in|Kampf und|Ruh' steht|eins im|Her- zen,|und das * bist|du!|
 e4- | e2 z3/2 c/ | c2 c>c | c2 B>B | =B2 c2 | f3 z/ =d/ | e2 e>e | d2 B z/ E/ | e2 e>e | %19
w: |* Das|sind dei- ne|Au- gen, das|ist dein|Mund, das|ist dei- ner|See- le tief-|in- ner- ster|
 d2 z3/2 B/ | B2 B>B | B2 F z/ B/ | B2 B2 | A2 z A | d2 e2 | d2 _cA | _f2 f2 | _f2 e2 | =d2 _d2 | %29
w: Grund. Das|ist dei- ne|Lie- be, sie|winkt mir|zu, in|Lust und|Lei- den, in|Kampf und|Ruh', in|Lust und|
 c2 BA | a4- | ae cB | A4- | A4- | A2 z2 | z4 | c2 c>c | d2 cf | c3 B | e3 A | d3 c | B2 AG | %42
w: Lei- den, in|Kampf|* * und *|Ruh'.||||Gott, der die|Wel- ten im|Her- zen|trägt, hat|mir ins|Herz dei- ne|
 c2 AF | G2 z2 ||[K:F] c2 c>c | =d2 cf | =B2 B2 | e2 cA | c2 cB | A3 z | z3/2 =A/ =A>=A | d4 | %52
w: Lie- be ge-|legt;|Gott hielt die|Welt ei- nes|hat auch|mir dei- ne|Lie- be be-|schert.|Und ob die|Welt|
 A>F G^G | A3 A | =B3 ^c | ^f3 d | d2 d>c | =B2 z2 |[K:Ab] z2 z E | F3 G | c2 A>A | f2 e2 | %62
w: uns zu tren- nen|meint, wir|sind in|Gott treu-|in- nig ver-|eint.|In|Lust und|Schmer- zen, in|Kampf und|
 =d2 z d | g2 f>=d | e2 c2 | z c (3cbA | e4- | e4- | e2 z3/2 c/ | c2 c>c | c2 B>B | =B2 c2 | %72
w: Ruh' steht|eins fest im|Her- zen,|und das * bist|du!||* Das|sind dei- ne|Au- gen, das|ist dein|
 f3 z/ =d/ | e2 e>e | d2 B z/ E/ | e2 e>e | d2 z3/2 B/ | B2 B>B | B2 F z/ B/ | B2 B2 | A3 z/ A/ | %81
w: Mund, das|ist dei- ner|See- le tief-|in- ner ster|Grund, das|ist dei- ne|Lie- be, sie|winkt mir|zu in|
 d2 d2 | d2 _cA | _f2 f2 | _f2 e2 | =d2 _d2 | c2 BA | a4- | a=d fe | e4- | e2 f>e | e4- | e2 e>d | %93
w: Lust und|Lei den, in|Kampf und|Ruh', in|Lust und|Lei- den, in|Kampf|* * und *|Ruh',|* in *|Kampf|* und *|
 c4- | c4- | c2 z2 | z4 | z4 |] %98
w: Ruh'|||||

